svgs/sharp-regular/car-wash.svg

<svg xmlns="http://www.w3.org/2000/svg" viewBox="0 0 448 512"><!--! Font Awesome Pro 6.6.0 by @fontawesome - https://fontawesome.com License - https://fontawesome.com/license (Commercial License) Copyright 2024 Fonticons, Inc. --><path d="M224 128c-26.5 0-48-21.5-48-48c0-32 48-80 48-80s48 48 48 80s-21.5 48-48 48zM103.1 160l16.9 0 208 0 16.9 0 5.7 15.9L384.9 272l47.1 0 0 48 0 80 0 16 0 32 0 64-48 0 0-64L64 448l0 64-48 0 0-64 0-32 0-16 0-80 0-48 47.1 0 34.3-96.1 5.7-15.9zM368.6 320c-.4 0-.7 0-1.1 0L80.6 320c-.4 0-.7 0-1.1 0L64 320l0 80 320 0 0-80-15.4 0zM311.1 208l-174.2 0-22.9 64 219.9 0-22.9-64zM112 336a24 24 0 1 1 0 48 24 24 0 1 1 0-48zm200 24a24 24 0 1 1 48 0 24 24 0 1 1 -48 0zM112 80c0 32-21.5 48-48 48s-48-21.5-48-48C16 48 64 0 64 0s48 48 48 80zm272 48c-26.5 0-48-21.5-48-48c0-32 48-80 48-80s48 48 48 80s-21.5 48-48 48z"/></svg>

<svg xmlns="http://www.w3.org/2000/svg" viewBox="0 0 448 512"><!--! Font Awesome Pro 6.4.0 by @fontawesome - https://fontawesome.com License - https://fontawesome.com/license (Commercial License) Copyright 2023 Fonticons, Inc. --><path d="M224 128c-26.5 0-48-21.5-48-48c0-32 48-80 48-80s48 48 48 80s-21.5 48-48 48zM103.1 160H120 328h16.9l5.7 15.9L384.9 272H432v48 80 16 32 64H384V448H64v64H16V448 416 400 320 272H63.1l34.3-96.1 5.7-15.9zM368.6 320c-.4 0-.7 0-1.1 0H80.6c-.4 0-.7 0-1.1 0H64v80H384V320H368.6zM311.1 208H136.9l-22.9 64H333.9l-22.9-64zM112 336a24 24 0 1 1 0 48 24 24 0 1 1 0-48zm200 24a24 24 0 1 1 48 0 24 24 0 1 1 -48 0zM112 80c0 32-21.5 48-48 48s-48-21.5-48-48C16 48 64 0 64 0s48 48 48 80zm272 48c-26.5 0-48-21.5-48-48c0-32 48-80 48-80s48 48 48 80s-21.5 48-48 48z"/></svg>
